brandFactory_export/3.Masa/Tirita_3Masa.svg

<?xml version="1.0" encoding="UTF-8"?>
<svg width="24px" height="24px" viewBox="0 0 24 24" version="1.1" xmlns="http://www.w3.org/2000/svg" xmlns:xlink="http://www.w3.org/1999/xlink">
    <title>3.Masa/Tirita_3Masa</title>
    <g id="Symbols" stroke="none" stroke-width="1" fill="none" fill-rule="evenodd">
        <g id="3.Masa/Tirita_3Masa" fill="#5CB615" fill-rule="nonzero">
            <path d="M19.9260504,19.8991597 C22.2319328,17.5932773 22.3092437,15.3579832 20.1613445,13.0655462 C20.1042017,13.0016807 20.0705882,12.9714286 20.0403361,12.9445378 L19.9294118,12.8369748 L19.1764706,12.087395 L12.1042017,19.1563025 L12.302521,19.3512605 C12.4403361,19.5092437 12.5445378,19.6033613 12.6487395,19.7042017 L12.8605042,19.9092437 C15.2369748,22.2789916 17.5495798,22.2789916 19.9260504,19.8991597 Z M1.95294118,7.31764706 C1.97310924,8.45378151 2.57815126,9.62352941 3.74789916,10.7932773 L3.94621849,10.9983193 C4.04705882,11.102521 4.14453782,11.2067227 4.25210084,11.3008403 L4.31596639,11.3647059 L11.3915966,4.29243697 L10.6991597,3.6 C9.55294118,2.4907563 8.42352941,1.93613445 7.28739496,1.93613445 C6.11428571,1.93613445 4.94117647,2.53109244 3.74789916,3.72436975 C2.53445378,4.93445378 1.93277311,6.14453782 1.95294118,7.31764706 Z M21.5932773,11.7848739 C24.4403361,14.8235294 24.3428571,18.1983193 21.2840336,21.2537815 C19.707563,22.8336134 18.0470588,23.6235294 16.3865546,23.6235294 C14.7327731,23.6235294 13.0756303,22.8369748 11.502521,21.2605042 L11.3243697,21.0890756 C11.1731092,20.9445378 11.0252101,20.8 10.897479,20.6521008 L10.1109244,19.8655462 C10.097479,19.8521008 10.0806723,19.8487395 10.0672269,19.8352941 L3.6302521,13.4016807 C3.62016807,13.3915966 3.61680672,13.3781513 3.60672269,13.3680672 L2.94453782,12.7058824 C2.84033613,12.6184874 2.69579832,12.4705882 2.5512605,12.3193277 L2.38655462,12.1478992 C0.857142857,10.6184874 0.0638655462,9.00504202 0.0336134454,7.35462185 C0.00336134454,5.64033613 0.793277311,3.95966387 2.38991597,2.36638655 C5.49243697,-0.739495798 8.92436975,-0.789915966 12.0436975,2.23193277 L13.405042,3.59327731 C13.4117647,3.6 13.4218487,3.6 13.4285714,3.60672269 L19.8655462,10.0403361 C19.8689076,10.0436975 19.8722689,10.0537815 19.8789916,10.0605042 L21.3680672,11.5462185 C21.4453782,11.6268908 21.5260504,11.7008403 21.5932773,11.7848739 Z M11.2672269,11.2033613 C10.9815126,11.4890756 10.9815126,11.9529412 11.2672269,12.2386555 C11.5529412,12.5243697 12.0134454,12.5243697 12.302521,12.2386555 C12.5882353,11.9529412 12.5882353,11.4890756 12.302521,11.2033613 C12.0134454,10.9176471 11.5495798,10.9176471 11.2672269,11.2033613 Z M10.6184874,14.5445378 C10.3327731,14.8302521 10.3327731,15.2941176 10.6184874,15.5798319 C10.9042017,15.8655462 11.3680672,15.8655462 11.6537815,15.5798319 C11.9394958,15.2941176 11.9394958,14.8302521 11.6537815,14.5445378 C11.3647059,14.2588235 10.9042017,14.2588235 10.6184874,14.5445378 Z M15.7243697,10.4739496 C15.4386555,10.1882353 14.9747899,10.1882353 14.6890756,10.4739496 C14.4033613,10.7596639 14.4033613,11.2235294 14.6890756,11.5092437 C14.9747899,11.794958 15.4386555,11.794958 15.7243697,11.5092437 C16.010084,11.2201681 16.010084,10.7596639 15.7243697,10.4739496 Z M7.99327731,11.8957983 C7.70756303,12.1815126 7.70756303,12.6453782 7.99327731,12.9310924 C8.2789916,13.2168067 8.74285714,13.2168067 9.02857143,12.9310924 C9.31428571,12.6453782 9.31428571,12.1815126 9.02857143,11.8957983 C8.74285714,11.610084 8.2789916,11.610084 7.99327731,11.8957983 Z M12.0638655,7.82184874 C11.7781513,8.10756303 11.7781513,8.57142857 12.0638655,8.85714286 C12.3495798,9.14285714 12.8134454,9.14285714 13.0991597,8.85714286 C13.3848739,8.57142857 13.3848739,8.10756303 13.0991597,7.82184874 C12.8134454,7.5394958 12.3495798,7.5394958 12.0638655,7.82184874 Z" id="Tirita_3Masa"></path>
        </g>
    </g>
</svg>

<svg width="24" height="24" viewBox="0 0 24 24" xmlns="http://www.w3.org/2000/svg"><path d="M19.926 19.9c2.306-2.307 2.383-4.542.235-6.834a1.317 1.317 0 00-.12-.121l-.112-.108-.753-.75-7.072 7.07.199.194c.137.158.242.252.346.353l.212.205c2.376 2.37 4.689 2.37 7.065-.01zM1.953 7.317c.02 1.136.625 2.306 1.795 3.475l.198.205c.101.105.199.209.306.303l.064.064 7.076-7.073-.693-.692C9.553 2.49 8.424 1.936 7.287 1.936c-1.173 0-2.346.595-3.54 1.788-1.213 1.21-1.814 2.42-1.794 3.594zm19.64 4.467c2.847 3.039 2.75 6.413-.309 9.469-1.576 1.58-3.237 2.37-4.897 2.37-1.654 0-3.311-.787-4.884-2.363l-.179-.172c-.15-.144-.299-.289-.427-.437l-.786-.786c-.014-.014-.03-.017-.044-.03L3.63 13.401c-.01-.01-.013-.024-.023-.034l-.662-.662a5.813 5.813 0 01-.394-.387l-.164-.171C.857 10.618.064 9.005.034 7.355.004 5.64.794 3.96 2.39 2.366 5.492-.739 8.924-.79 12.044 2.232l1.361 1.361c.007.007.017.007.024.014l6.437 6.433c.003.004.006.014.013.02l1.49 1.486c.076.08.157.155.224.239zm-10.326-.582a.732.732 0 101.036 1.036.732.732 0 00-1.036-1.036zm-.649 3.342a.732.732 0 101.037 1.035.732.732 0 00-1.037-1.035zm5.106-4.071a.732.732 0 10-1.035 1.036.732.732 0 001.035-1.036zm-7.73 1.422a.732.732 0 101.035 1.035.732.732 0 00-1.036-1.035zm4.07-4.074a.732.732 0 101.035 0 .739.739 0 00-1.035 0z" fill="#5CB615" fill-rule="nonzero"/></svg>
